!!!COM:	Busnoys, Antoine
!!!CDT:	~1430///-1492/11/06
!!!OTL:	J'ay mains de biens
!!!AGN:	Song; Chanson
!!!SCT:	Bus3027
!!!SCA:	Bus3027
!!!voices:	3
**kern	**kern	**kern
*staff3	*staff2	*staff1
*Ivox	*Ivox	*Ivox
*I"Contratenor	*I"Tenor	*I"Superius
*I'Ct	*I'T	*I'S
*>[A,B]	*>[A,B]	*>[A,B]
*>A	*>A	*>A
*clefF4	*clefGv2	*clefG2
*k[b-]	*k[b-]	*k[b-]
*M2/1	*M2/1	*M2/1
*met(C|)	*met(C|)	*met(C|)
=1-	=1-	=1-
!	!	!LO:TX:Z=25:t=Virelai
0G	0G	1.g
.	.	4f
.	.	4e
=2	=2	=2
1.G	1B-	1d
.	1c	1e
4F	.	.
4E	.	.
=3	=3	=3
0D	0d	0f
=4	=4	=4
1D	1.d	1b-
1F	.	[1a
.	2c	.
=5	=5	=5
1G	1B-	2a]
.	.	2g
1E	1G	[1g
=6	=6	=6
0D	0A	1g]
.	.	1f
=7	=7	=7
2GG	0G	1.b-
1G	.	.
4F	.	4a
4E	.	4g
=8	=8	=8
1D	1d	1f
1r	1e	2g
.	.	2f
=9	=9	=9
0BB-	0f	0d
=10	=10	=10
0B-	0d	1.f
.	.	2d
=11	=11	=11
1A	1c	2e
.	.	2f
1G	1B-	[1g
=12	=12	=12
0D	0A	2g]
.	.	2f#i
.	.	2f#i
.	.	2e
=13	=13	=13
1GG	[0G	0g
[1G	.	.
=14	=14	=14
2G]	0G]	1r
2A	.	.
2.B-	.	1d
4A	.	.
=15	=15	=15
2G	1r	1e
4F	.	.
4E	.	.
1D	1d	1f
=16	=16	=16
1C	1e	2g
.	.	2f
1BB-	1f	1d
=17	=17	=17
1r	2g	1B-
.	2f	.
1BB-	[1d	[1f
=18	=18	=18
2FF	2d]	2f]
4GG	2c	2e
4AA	.	.
1BB-	2B-	[1d
.	[2f	.
=19	=19	=19
1r	2f]	2d]
.	2e	2c
1BB-	1d	1B-
=20	=20	=20
1FF	1c	1A
1GG	1B-	[1B-
=21	=21	=21
2FF	0c	1B-]
1F	.	.
.	.	1A
2r	.	.
=22	=22	=22
1BB-	2.B-	2B-
.	.	2d
.	4A	.
2C	2G	2e
2FF	2F	[2f
=23	=23	=23
1BB-	1D	4f]
.	.	4e
.	.	2d
2AA	2E	2c
2D	2F	[2d
=24	=24	=24
4BB-	2D	4d]
4AA	.	4c
2GG	1G	2B-
1D	.	1A
.	2F#i	.
=25	=25	=25
1GG	[0G	0G
1r	.	.
=26	=26	=26
1C	0G]	1r
1BB-	.	1B-
=27	=27	=27
0GG	1r	1B-
.	1G	1B-
=28	=28	=28
1D	1F	1A
2GG	2G	2G
2BB-	2D	[2d
=29	=29	=29
1AA	1E	2d]
.	.	2c
1A	1D	2.d
.	.	4e
=30	=30	=30
1.D	1.A	1.f
4C	2A	4e
4BB-	.	4d
=31	=31	=31
1AA	1A	2.c
.	.	4B-
[1GG	[1B-	[1d
=32	=32	=32
1GG]	1B-]	2d]
.	.	2c
2D	1A	2.f
2F	.	.
.	.	4e
=33	=33	=33
2C	1G	2.e
2GG	.	.
.	.	4d
1D	1F	[1d
=34	=34	=34
0AA	0E	1d]
.	.	1c#i
=35	=35	=35
1r	[0D	0d
1A	.	.
=36	=36	=36
1D	0D]	1r
1BB-	.	1f
=37	=37	=37
1.D	1r	1.f
.	1B-	.
4C	.	2d
4BB-	.	.
=38	=38	=38
1AA	2.c	1e
.	4B-	.
1D	1A	1f
=39	=39	=39
0GG	0G	1.g
.	.	4f
.	.	4e
=40	=40	=40
1G	1B-	1d
1C	1c	1e
=41	=41	=41
1D	1A	1f
1GG	1G	2g
.	.	[2b-
=42	=42	=42
1r	1d	2b-]
.	.	2a
1F	1c	[1a
=43	=43	=43
1.G	0B-	2a]
.	.	2g
.	.	2g
2E	.	2f
=44	=44	=44
2F	0A	1a
1D	.	.
.	.	2f
2C	.	2e
=45	=45	=45
2BB-	0B-	1d
2AA	.	.
1GG	.	[1g
=46	=46	=46
1D	0A	1g]
2r	.	1f
2D	.	.
=47	=47	=47
1GG	1G	1b-
1D	1F	1a
=48	=48	=48
2BB-	2G	2g
2GG	2B-	1g
1D	1A	.
.	.	2f#i
=49	=49	=49
0GGl	0Gl	0gl
!!LO:LB:i:g=z
=50||!|:	=50||!|:	=50||!|:
*>B	*>B	*>B
*clefF4	*clefGv2	*clefG2
*k[b-]	*k[b-]	*k[b-]
*M2/1	*M2/1	*M2/1
*met(C|)	*met(C|)	*met(C|)
!!section: S'en tel estat
!!!OMD: S'en tel estat
[0G	0g	0g
=51	=51	=51
1G]	1g	1b-
1D	1f	[1a
=52	=52	=52
1D	0d	1a]
1G	.	1b-
=53	=53	=53
0C	1c	1.cc
.	[1e-i	.
.	.	4b-
.	.	4a
=54	=54	=54
2E-i	1e-]	2g
4D	.	2f
4C	.	.
1BB-	1d	[1b-
=55	=55	=55
0F	0c	1b-]
.	.	1a
=56	=56	=56
0BB-	0B-	1.b-
.	.	2a
=57	=57	=57
1C	1r	1g
1C	1e-i	1g
=58	=58	=58
1D	1d	1f
2G	2B-	2b-
2F	[2c	[2a
=59	=59	=59
4F	4c]	4a]
4G	4B-	4g
2E	2G	1g
1D	1A	.
.	.	2f#i
=60	=60	=60
2GG	[0G	0g
1C	.	.
4BB-	.	.
4AA	.	.
=61	=61	=61
1GG	0G]	1r
2G	.	1g
[2B-	.	.
=62	=62	=62
4B-]	0r	1g
4A	.	.
2G	.	.
1F	.	1a
=63	=63	=63
0E-i	1.g	1.b-
.	4f	4a
.	4e-i	4g
=64	=64	=64
2B-	2d	2f
2E-i	2e-i	2g
2B-	2d	2f
2G	2B-	[2b-
=65	=65	=65
1F	1c	2b-]
.	.	2a
4B-	1B-	1b-
4A	.	.
2G	.	.
=66	=66	=66
4F	2c	2a
4E	.	.
2D	2d	2f
2C	2e	2g
2D	[2d	[2f
=67	=67	=67
1BB-	4d]	4f]
.	4c	4e
.	2B-	2d
1FF	2r	1c
.	2A	.
=68	=68	=68
1BB-	2.B-	0B-
.	4A	.
2BB-	2G	.
[2BB-	4F	.
.	4E	.
=69	=69	=69
2BB-]	2D	1B-
2GG	1G	.
1D	.	1A
.	2F	.
=70	=70	=70
2GG	2.B-	2G
2G	.	2.B-
.	4G	.
2F	2A	.
.	.	4c
2D	[2B-	[2d
=71	=71	=71
1G	4B-]	4d]
.	4G	4c
.	2.G	2B-
1D	.	1A
.	4F#i	.
.	4F#i	.
.	4E	.
=72	=72	=72
0GGl	0Gl	0Gl
==:|!	==:|!	==:|!
*-	*-	*-
!!!RDF**kern: l=long note in original notation
!!!RDF**kern: i=editorial accidental
!!!ENC:	Chris Gage 04-20-2015
!!!END:	2015/05/05/
!!!EED:	Jesse Rodin
!!!EEV:	2015/09/21/
!!!ONB:	Translated from MusicXML and edited on 2015/09/21/ by Craig Sapp
!!muse2ps: C^@{COM}^i2I150v95,95,150Q16
